assets/flags-color/Hr.svg

<svg xmlns="http://www.w3.org/2000/svg" viewBox="0 0 512 512"><path fill="#41479b" d="M0 341.33h512V512H0z"/><path fill="#ff4b55" d="M0 0h512v170.67H0z"/><path fill="#f5f5f5" d="M0 170.67h512v170.67H0z"/><g fill="#ff4b55"><path d="M161.68 175.16h37.726v43.12H161.68zM237.14 175.16h37.726v43.12H237.14zM199.41 218.27h37.726v43.12H199.41zM312.59 175.16h37.726v43.12H312.59z"/><path d="M274.86 218.27h37.726v43.12H274.86z"/></g><g fill="#f5f5f5"><path d="M199.41 175.16h37.726v43.12H199.41zM274.86 175.16h37.726v43.12H274.86zM161.68 218.27h37.726v43.12H161.68z"/><path d="M237.14 218.27h37.726v43.12H237.14zM312.59 218.27h37.726v43.12H312.59z"/></g><g fill="#ff4b55"><path d="M237.14 261.39h37.726v43.12H237.14zM199.41 304.5h37.726v43.12H199.41z"/><path d="M274.86 304.5h37.726v43.12H274.86z"/></g><g fill="#f5f5f5"><path d="M199.41 261.39h37.726v43.12H199.41zM274.86 261.39h37.726v43.12H274.86z"/><path d="M237.14 304.5h37.726v43.12H237.14z"/></g><g fill="#ff4b55"><path d="M350.316 175.158v121.263c0 52.089-42.227 94.316-94.316 94.316s-94.316-42.227-94.316-94.316V175.158h188.632m6.737-6.737H154.947v128c0 55.72 45.332 101.053 101.053 101.053s101.053-45.332 101.053-101.053v-128z"/><path d="M199.41 304.505v-43.116h-37.726v35.032c0 2.729.181 5.414.408 8.084h37.318z"/></g><g fill="#f5f5f5"><path d="M349.908 304.505H312.59v43.116h22.549a93.666 93.666 0 0014.769-43.116zM176.861 347.621h22.549v-43.116h-37.318a93.677 93.677 0 0014.769 43.116z"/></g><g fill="#ff4b55"><path d="M312.59 304.505h37.318c.227-2.67.408-5.354.408-8.084v-35.032H312.59v43.116zM199.41 371.745v-24.124h-22.549c6.042 9.32 13.695 17.461 22.549 24.124zM335.139 347.621H312.59v24.124c8.854-6.663 16.507-14.804 22.549-24.124z"/></g><g fill="#f5f5f5"><path d="M199.41 371.745c10.981 8.264 23.761 14.263 37.726 17.098v-41.222H199.41v24.124zM274.863 388.843c13.965-2.835 26.745-8.834 37.726-17.098v-24.124h-37.726v41.222z"/></g><path fill="#ff4b55" d="M274.863 347.621h-37.727v41.222a94.689 94.689 0 0018.863 1.894c6.461 0 12.768-.656 18.863-1.894v-41.222h.001z"/><g fill="#4173cd"><path d="M187.729 103.813a275.904 275.904 0 00-25.167-2.715 290.346 290.346 0 00-18.924 17.018l18.046 43.568a246.583 246.583 0 0137.009-12.007l-10.964-45.864zM278.899 96.66A282.162 282.162 0 00256 86.334a282.853 282.853 0 00-22.899 10.326l3.678 47.014a246.182 246.182 0 0138.442 0l3.678-47.014zM368.362 118.116a290.346 290.346 0 00-18.924-17.018c-8.56.53-16.958 1.446-25.167 2.715l-10.965 45.865a246.432 246.432 0 0137.009 12.007l18.047-43.569z"/></g><g fill="#41479b"><path d="M233.101 96.66a279.776 279.776 0 00-24.26-6.635 286.514 286.514 0 00-21.112 13.787l10.965 45.865a246.429 246.429 0 0138.085-6.003l-3.678-47.014zM324.271 103.813a286.614 286.614 0 00-21.112-13.787 279.874 279.874 0 00-24.26 6.635l-3.678 47.014a246.429 246.429 0 0138.085 6.003l10.965-45.865z"/></g><g fill="#ff4b55"><path d="M234.572 115.466a274.551 274.551 0 00-42.457 6.692l-2.193-9.174a284.41 284.41 0 0143.914-6.922l.736 9.404zM236.043 134.271a255.926 255.926 0 00-39.542 6.233c-.732-3.057-1.462-6.116-2.193-9.173a265.056 265.056 0 0141-6.463l.735 9.403z"/></g><path fill="#ffe15a" d="M300.762 137.437a255.43 255.43 0 00-9.893-1.559c-5.436-.751-9.485-5.366-9.014-10.555.47-5.185 5.668-8.948 11.585-8.132a273.8 273.8 0 0110.622 1.674c5.889 1.04 9.703 6.229 8.554 11.305-1.148 5.084-6.439 8.221-11.854 7.267z"/><path fill="#ff4b55" d="M353.925 152.97a255.946 255.946 0 00-38.426-12.466c.732-3.057 1.462-6.116 2.193-9.173a265.106 265.106 0 0139.842 12.925c-1.202 2.905-2.406 5.81-3.609 8.714z"/><g fill="#ffe15a"><path d="M350.559 124.674c-1.333 3.674-5.826 5.422-10.072 4.041-4.245-1.382-6.843-5.419-5.768-9.176 1.075-3.757 5.625-5.746 10.13-4.283 4.505 1.461 7.043 5.746 5.71 9.418zM177.281 119.539c1.074 3.762-1.527 7.798-5.768 9.176-4.244 1.375-8.738-.373-10.072-4.041-1.335-3.674 1.206-7.957 5.711-9.418 4.501-1.458 9.057.529 10.129 4.283zM253.848 113.364c.009 3.125-2.8 5.669-6.279 5.775-3.478.112-6.444-2.26-6.627-5.373-.182-3.114 2.625-5.808 6.275-5.927 3.651-.114 6.617 2.4 6.631 5.525zM271.058 113.766c-.186 3.118-3.151 5.484-6.627 5.373-3.478-.107-6.288-2.651-6.279-5.775.013-3.121 2.98-5.642 6.631-5.525 3.652.111 6.455 2.811 6.275 5.927zM262.117 127.911c-.087 3.125-2.825 5.582-6.117 5.581-3.292-.002-6.028-2.456-6.117-5.581-.085-3.115 2.651-5.732 6.117-5.724 3.466-.006 6.203 2.607 6.117 5.724z"/></g></svg>

<svg xmlns="http://www.w3.org/2000/svg" x="0" y="0" enable-background="new 0 0 512 512" version="1.1" viewBox="0 0 512 512" xml:space="preserve"><path fill="#41479B" d="M0 341.33H512V512H0z"/><path fill="#FF4B55" d="M0 0H512V170.67H0z"/><path fill="#F5F5F5" d="M0 170.67H512V341.34H0z"/><g fill="#FF4B55"><path d="M161.68 175.16H199.406V218.28H161.68z"/><path d="M237.14 175.16H274.866V218.28H237.14z"/><path d="M199.41 218.27H237.136V261.39H199.41z"/><path d="M312.59 175.16H350.316V218.28H312.59z"/><path d="M274.86 218.27H312.586V261.39H274.86z"/></g><g fill="#F5F5F5"><path d="M199.41 175.16H237.136V218.28H199.41z"/><path d="M274.86 175.16H312.586V218.28H274.86z"/><path d="M161.68 218.27H199.406V261.39H161.68z"/><path d="M237.14 218.27H274.866V261.39H237.14z"/><path d="M312.59 218.27H350.316V261.39H312.59z"/></g><g fill="#FF4B55"><path d="M237.14 261.39H274.866V304.51H237.14z"/><path d="M199.41 304.5H237.136V347.62H199.41z"/><path d="M274.86 304.5H312.586V347.62H274.86z"/></g><g fill="#F5F5F5"><path d="M199.41 261.39H237.136V304.51H199.41z"/><path d="M274.86 261.39H312.586V304.51H274.86z"/><path d="M237.14 304.5H274.866V347.62H237.14z"/></g><g fill="#FF4B55"><path d="M350.316 175.158v121.263c0 52.089-42.227 94.316-94.316 94.316s-94.316-42.227-94.316-94.316V175.158h188.632m6.737-6.737H154.947v128c0 55.72 45.332 101.053 101.053 101.053s101.053-45.332 101.053-101.053v-128z"/><path d="M199.41 304.505v-43.116h-37.726v35.032c0 2.729.181 5.414.408 8.084h37.318z"/></g><g fill="#F5F5F5"><path d="M349.908 304.505H312.59v43.116h22.549a93.666 93.666 0 0 0 14.769-43.116zM176.861 347.621h22.549v-43.116h-37.318a93.677 93.677 0 0 0 14.769 43.116z"/></g><g fill="#FF4B55"><path d="M312.59 304.505h37.318c.227-2.67.408-5.354.408-8.084v-35.032H312.59v43.116zM199.41 371.745v-24.124h-22.549c6.042 9.32 13.695 17.461 22.549 24.124zM335.139 347.621H312.59v24.124c8.854-6.663 16.507-14.804 22.549-24.124z"/></g><g fill="#F5F5F5"><path d="M199.41 371.745c10.981 8.264 23.761 14.263 37.726 17.098v-41.222H199.41v24.124zM274.863 388.843c13.965-2.835 26.745-8.834 37.726-17.098v-24.124h-37.726v41.222z"/></g><path fill="#FF4B55" d="M274.863 347.621h-37.727v41.222a94.689 94.689 0 0 0 18.863 1.894c6.461 0 12.768-.656 18.863-1.894v-41.222h.001z"/><g fill="#4173CD"><path d="M187.729 103.813a275.904 275.904 0 0 0-25.167-2.715 290.346 290.346 0 0 0-18.924 17.018l18.046 43.568a246.583 246.583 0 0 1 37.009-12.007l-10.964-45.864zM278.899 96.66A282.162 282.162 0 0 0 256 86.334a282.853 282.853 0 0 0-22.899 10.326l3.678 47.014a246.182 246.182 0 0 1 38.442 0l3.678-47.014zM368.362 118.116a290.346 290.346 0 0 0-18.924-17.018c-8.56.53-16.958 1.446-25.167 2.715l-10.965 45.865a246.432 246.432 0 0 1 37.009 12.007l18.047-43.569z"/></g><g fill="#41479B"><path d="M233.101 96.66a279.776 279.776 0 0 0-24.26-6.635 286.514 286.514 0 0 0-21.112 13.787l10.965 45.865a246.429 246.429 0 0 1 38.085-6.003l-3.678-47.014zM324.271 103.813a286.614 286.614 0 0 0-21.112-13.787 279.874 279.874 0 0 0-24.26 6.635l-3.678 47.014a246.429 246.429 0 0 1 38.085 6.003l10.965-45.865z"/></g><g fill="#FF4B55"><path d="M234.572 115.466a274.551 274.551 0 0 0-42.457 6.692l-2.193-9.174a284.41 284.41 0 0 1 43.914-6.922l.736 9.404zM236.043 134.271a255.926 255.926 0 0 0-39.542 6.233c-.732-3.057-1.462-6.116-2.193-9.173a265.056 265.056 0 0 1 41-6.463l.735 9.403z"/></g><path fill="#FFE15A" d="M300.762 137.437a255.43 255.43 0 0 0-9.893-1.559c-5.436-.751-9.485-5.366-9.014-10.555.47-5.185 5.668-8.948 11.585-8.132a273.8 273.8 0 0 1 10.622 1.674c5.889 1.04 9.703 6.229 8.554 11.305-1.148 5.084-6.439 8.221-11.854 7.267z"/><path fill="#FF4B55" d="M353.925 152.97a255.946 255.946 0 0 0-38.426-12.466c.732-3.057 1.462-6.116 2.193-9.173a265.106 265.106 0 0 1 39.842 12.925c-1.202 2.905-2.406 5.81-3.609 8.714z"/><g fill="#FFE15A"><path d="M350.559 124.674c-1.333 3.674-5.826 5.422-10.072 4.041-4.245-1.382-6.843-5.419-5.768-9.176 1.075-3.757 5.625-5.746 10.13-4.283 4.505 1.461 7.043 5.746 5.71 9.418zM177.281 119.539c1.074 3.762-1.527 7.798-5.768 9.176-4.244 1.375-8.738-.373-10.072-4.041-1.335-3.674 1.206-7.957 5.711-9.418 4.501-1.458 9.057.529 10.129 4.283zM253.848 113.364c.009 3.125-2.8 5.669-6.279 5.775-3.478.112-6.444-2.26-6.627-5.373-.182-3.114 2.625-5.808 6.275-5.927 3.651-.114 6.617 2.4 6.631 5.525zM271.058 113.766c-.186 3.118-3.151 5.484-6.627 5.373-3.478-.107-6.288-2.651-6.279-5.775.013-3.121 2.98-5.642 6.631-5.525 3.652.111 6.455 2.811 6.275 5.927zM262.117 127.911c-.087 3.125-2.825 5.582-6.117 5.581-3.292-.002-6.028-2.456-6.117-5.581-.085-3.115 2.651-5.732 6.117-5.724 3.466-.006 6.203 2.607 6.117 5.724z"/></g></svg>
